X: 10261
Q:
M: 6/8
L: 1/8
K: G
[|\
d2 c B2 c | B2 A G2 d |
d2 c B2 c | B2 A G2 z | d2 d d2 e |
f d z z2 z | A2 A A2 A | F D z z2 A |
d2 z z2 d | f2 z z2 z | f a f d2 A |
e2 d d2 z |[M:C] "^Recit"c3 B B B z2 ][[M:6/8] "^a tempo"d2 B G2 z |
e2 c A2 g | f2 e d2 c | B2 A G2 g |
d2 e B2 c | d2 A G2 z & x3 x2g | f2z/e/ d2z/c/ |



